X:1
T:Bort Allt Vad Oro Gör
T:Bort Allt Vad Oro Gör
T:Daniel Helldén
T:C.M. Bellman
C:Daniel Helldén
Z:C.M. Bellman
%%score [ 1 ( 2 3 ) ( 4 5 ) ( 6 7 ) ]
L:1/8
Q:1/4=120
M:3/4
K:C
V:1 treble nm="Sopran" snm="S."
V:2 treble nm="Alt" snm="A."
V:3 treble 
V:4 treble-8 nm="Tenor" snm="T."
V:5 treble-8 
V:6 bass nm="Bass" snm="B."
V:7 bass 
V:1
 C2 C2 C2 | G2 G2 G2 | c2 cB cd | c4 B2 | A2 A2 d2 | G2 G2 c2 | F2 F2 F2 | F3 G E2 | (D2 C2) B,2 | %9
w: Bort allt vad|o- ro gör,|bort allt vad hjär- tat|kväl- jer!|Bäst att man|väl- jer bland|des- se bu-|tel- jer sin|mag- * li-|
w: Bort allt vad|o- ro gör,|allt är ju stoft och|as- ka.|Låt oss bli|ras- ka och|töm- ma vår|flas- ka bland|brö- * der-|
 C6 |: e2 ed ef | ed d4 | c2 cB cd | c_B B4 | A2 A2 d2 | G2 G2 c2 | F2 F2 F2 | (F3 G) E2 | %18
w: kör.|Gran- ne! gör du just|som jag gör,|vet den- na ol- jan|ger hu- mör.|Vad det var|läc- kert! Vad|var det? Rhenskt|Bläc- * ker?|
w: na.|||||Vad det var|mäk- tigt! Vad|var det? Jo|präk- * tigt.|
 D2 C2 B,2 | C6 :| %20
w: Oui, Mon- seig-|neur.|
w: Ma- la- ga,|ja.|
V:2
 C6 | D4 D2 | E4 ^F2 | (G2 D2) G2 | A2 (GF) (ED) | (DF) (ED) (CB,) | A,2 A,2 (B,C) | D4 C2 | %8
w: Bort!|allt vad|hjär- tat|kväl- * jer!|Bäst att _ man _|väl- * jer _ bland _|des- se bu- *|tel- jer|
w: Allt|är ju|stoft och|as- * ka.|Låt oss _ bli _|ras- * ka _ och _|töm- ma vår _|_ bland|
 D4 D2 | C6 |: G6 | ^G6 | A2 E4 | E2 D2 E2 | F2 (GF) (ED) | (DF) (ED) (CB,) | A,4 (B,C) | D4 C2 | %18
w: sin li-|kör.|Gran-|ne!|gör du|som jag gör.|Vad det _ var _|läc- * kert, _ vad _|det var _|läc- kert!|
w: brö- der-|na.|||||Vad det _ var _|mäk- * tigt, _ vad _|det var _|mäk- tigt!|
 D4 D2 | E6 :| %20
w: Mon- seig-|neur.|
w: Ma- la-|ga.|
V:3
 x6 | x6 | x6 | x6 | x6 | x6 | x6 | D2 D2 x2 | x6 | x6 |: x6 | x6 | x6 | x6 | x6 | x6 | x6 | x6 | %18
w: ||||||||||||||||||
w: |||||||flas- ka|||||||||||
 x6 | x6 :| %20
w: ||
w: ||
V:4
 c2 c2 c2 | B2 B2 B2 | A2 B2 c2 | d4 G2 | F2 F2 F2 | E2 E2 E2 | F2 F2 F2 | G4 C2 | F2 G4 | c6 |: %10
w: Bort allt vad|o- ro gör,|bort allt vad|kväl- jer!|Bäst att man|väl- jer bland|des- se bu-|tel- jer|sin li-|kör.|
w: Bort allt vad|o- ro gör,|allt är ju|as- ka.|Låt oss bli|ras- ka och|töm- ma vår|* bland|brö- der-|na.|
 c6 | d4 d2 | e2 A2 A2 | G_B (B2 G2) | F2 F2 F2 | E2 E2 E2 | F4 F2 | G4 C2 | F2 G4 | c6 :| %20
w: Gran-|ne! vet|ol- jan den|ger hu- mör. _|Vad det var|läc- kert, vad|det var|läc- kert,|Mon- seig-|neur.|
w: ||||Vad det var|mäk- tigt, vad|det var|mäk- tigt!|Ma- la-|ga.|
V:5
 x6 | x6 | x6 | x6 | x6 | x6 | x6 | G2 G2 x2 | x6 | x6 |: x6 | x6 | x6 | x6 | x6 | x6 | x6 | x6 | %18
w: ||||||||||||||||||
w: |||||||flas- ka|||||||||||
 x6 | x6 :| %20
w: ||
w: ||
V:6
 C2 C2 C2 | B,2 B,2 B,2 | A,2 A,2 A,2 | G,4 G,2 | F,2 F,2 F,2 | E,2 E,2 E,2 | E,2 D,2 C,2 | %7
w: Bort allt vad|o- ro gör,|bort allt vad|kväl- jer!|Bäst att man|väl- jer bland|des- se bu-|
w: Bort allt vad|o- ro gör,|allt är ju|as- ka.|Låt oss bli|ras- ka och|töm- ma vår|
 B,,4 C,2 | F,2 G,4 | C6 |: C,2 C2 C2 | B,B, B,2 B,2 | A,2 A,2 A,2 | G,G, G,4 | F,2 F,2 F,2 | %15
w: tel- jer|sin li-|kör.|Gran- ne! Gör|som jag gör, vet|ol- jan den|ger hu- mör.|Vad det var|
w: * bland|brö- der-|na.|||||Vad det var|
 E,2 E,2 E,2 | (E,2 D,2) C,2 | B,,4 C,2 | F,2 G,4 | C,6 :| %20
w: läc- kert, vad|det _ var|läc- kert,|Mon- seig-|neur.|
w: mäk- tigt, vad|det _ var|mäk- tigt!|Ma- la-|ga.|
V:7
 x6 | x6 | x6 | x6 | x6 | x6 | x6 | B,,2 B,,2 x2 | x6 | x6 |: x6 | x6 | x6 | x6 | x6 | x6 | x6 | %17
w: |||||||||||||||||
w: |||||||flas- ka||||||||||
 x6 | x6 | x6 :| %20
w: |||
w: |||

